X:1
T:Title
%%score { ( 1 3 ) | ( 2 4 ) }
L:1/8
M:4/4
K:Bb
V:1 treble nm="Grand Piano"
V:3 treble 
V:2 bass 
V:4 bass 
V:1
 z4 z2[Q:1/4=100] [DF]2 | [DB]2 [DB]2 [DB][FA][EG][DF] | [EG]2 [DF]4 [DF]2 | z4 z2 [DB]2 | %4
[M:3/4] c6 |[M:1/4] c2 |[M:4/4] z2 c2 z4 | [EG][FA][GB]G [B,DF]2 [B,DF]2 | z2 .[FB]2 z4 | %9
[M:3/4] [B,DB]6 |[M:1/4] [DFB]2 |[M:4/4] [CFA]2 [CEA]B c2 A2 | [DB]2 [DF]4 [DF]2 | d2 d2 B2 B2 | %14
[M:3/4] c6 |[M:1/4] c2 |[M:4/4] z2 c2 z4 | [EG][FA][GB]G [B,DF]2 [B,DF]2 | z2 .[FB]2 z4 | %19
[M:3/4] [B,DB]6 |] %20
V:2
 z4 z2 [B,,B,]2 | [B,,F,]2 [B,,F,]2 [B,,F,]2 [B,,B,]2 | [B,,B,]2 [B,,B,]4 [B,,B,]2 | %3
 [B,,F,]2 [D,F,]2 [C,F,]2 .[B,,F,]2 |[M:3/4][K:treble] [F,A,F]6 |[M:1/4] [F,A,F]2 | %6
[M:4/4] [B,F]2[K:bass] .[F,A,F]2 [D,B,]2 [B,,B,]2 | z2 [E,B,]2 z4 | E,2 D,E, F,2 F,2 | %9
[M:3/4] B,,6 |[M:1/4] B,,2 |[M:4/4] F,2 z [B,D] [F,A,F]2 [F,E]2 | [B,,F,]2 [B,,B,]4 [B,,B,]2 | %13
 [B,F]2 [B,F]2[K:bass] [G,C=E]2 [^F,B,E]2 |[M:3/4][K:treble] [F,A,F]6 |[M:1/4] [F,A,F]2 | %16
[M:4/4] [B,F]2[K:bass] .[F,A,F]2 [D,B,]2 [B,,B,]2 | z2 [E,B,]2 z4 | E,2 D,E, F,2 F,2 | %19
[M:3/4] B,,6 |] %20
V:3
 x8 | x8 | x8 | [DB]2 [FB]2 [EA]2 z B, |[M:3/4] x6 |[M:1/4] x2 |[M:4/4] d2 z E, [FB]2 [DF]2 | x8 | %8
 [B,EG]2 B,-[B,Gc] [DFB]2 [CEA]2 |[M:3/4] x6 |[M:1/4] x2 |[M:4/4] x8 | x8 | x8 |[M:3/4] x6 | %15
[M:1/4] x2 |[M:4/4] d2 z E, [FB]2 [DF]2 | x8 | [B,EG]2 B,-[B,Gc] [DFB]2 [CEA]2 |[M:3/4] x6 |] %20
V:4
 x8 | x8 | x8 | x8 |[M:3/4][K:treble] x6 |[M:1/4] x2 |[M:4/4] x2[K:bass] x6 | %7
 [E,B,]2 z E B,,2 B,,2 | x8 |[M:3/4] x6 |[M:1/4] x2 |[M:4/4] z2 F,2 z4 | x8 | x4[K:bass] x4 | %14
[M:3/4][K:treble] x6 |[M:1/4] x2 |[M:4/4] x2[K:bass] x6 | [E,B,]2 z E B,,2 B,,2 | x8 |[M:3/4] x6 |] %20

